img/icons/financial/pillow-chart-1.svg

<svg xmlns="http://www.w3.org/2000/svg" viewBox="0 0 46 42"><g data-name="Layer 2"><path data-name="Pillow Chart - 1" d="M42 40V24H32v16h-4V0H18v40h-4V16H4v24H0v2h46v-2zm-8-14h6v14h-6zM20 2h6v38h-6zM6 18h6v22H6z" fill="#231f20"/></g></svg>

<svg xmlns="http://www.w3.org/2000/svg" viewBox="0 0 46 42"><defs><style>.cls-1{fill:#231f20;}</style></defs><title>Pillow Chart - 1</title><g id="Layer_2" data-name="Layer 2"><g id="Icons"><g id="Shopping"><path id="Pillow_Chart_-_1" data-name="Pillow Chart - 1" class="cls-1" d="M42,40V24H32V40H28V0H18V40H14V16H4V40H0v2H46V40ZM34,26h6V40H34ZM20,2h6V40H20ZM6,18h6V40H6Z"/></g></g></g></svg>
